X:1
T:Title
%%score { ( 1 4 ) | ( 2 3 ) }
L:1/8
M:9/8
K:Ab
V:1 treble nm="Grand Piano"
V:4 treble 
V:2 bass 
V:3 bass 
V:1
 z3 z3[Q:1/4=108] .[A,CE]2 [DB] | [Ec]3 [CEA]3 .[DFB]2 [A,DF] | z3 z3 .A3 | B3 e3 d3 | %4
[M:3/4] [Ec]6 |[M:3/8] C-[CA][DB] |[M:9/8] [Ec]3 [CEA]3 .[DFB]2 [A,DF] | [CE]3 [CA]3 AB[Ec] | %8
 B3 E3 B3 |[M:5/8] [A,CA]-[A,CA]- [A,CA]3 |[M:12/8] z3 z c2- c6[K:bass] | z3[K:treble] z E2- E6- | %12
 E3 z3 z6 | z3 z B2- B6 | z3 z c2- c6 | e d2 .c3 D A,2 A, A,2 | A, [DFA]2- [DFA] G2- G3 d c2- | %17
[M:9/8] c B2- B A2- A- [DA]2- | [DA-] [CA]2- [CA-] A2 z3 |] %19
V:2
 z3 z3 z A[A,,A,] | [A,,A,]3 A,,3 z AD, | A,,3 [A,,E,]3 [C,A,][B,,G,][A,,A,] | D3 C3 [E,B,E]3 | %4
[M:3/4] [A,,A,]6 |[M:3/8] [A,,A,]2 [A,,A,] |[M:9/8] [A,,A,]3 A,,3 z AD, | %7
 [A,,A,]3 [A,,A,]3 [C,A,][B,,G,][A,,A,] | [E,G,D]6 [E,G,D]3 |[M:5/8] A,,-A,,- A,,3 | %10
[M:12/8][K:treble] C D2 C E2- E6 | z3[K:bass] z =C2- C6- | C3 z3 z6 | z3 z E2- E6 | C D2 C E2- E6 | %15
 [A,CE] [G,B,E]2 [A,E] [D,D]2 D, D,2 D, D,2 | D, D,2- D, [E,B,E]2- [E,B,E]3 [E,B,E] [E,A,E]2- | %17
[M:9/8] [E,A,E] [E,G,D]2- [E,G,D] z z z F,2- | F, E,2- E, z z z3 |] %19
V:3
 z3 z3 .A,,3 | z3 z3 .D,3 | x9 | [E,E]6 z3 |[M:3/4] x6 |[M:3/8] x3 |[M:9/8] z3 z3 .D,3 | x9 | x9 | %9
[M:5/8] x5 |[M:12/8][K:treble] x12 | C[K:bass] _C2 .D3 A,, A,,2 A,, A,,2- | %12
 A,, [A,,A,]2- [A,,A,] [A,CE]2- [A,CE]3 [A,E] [G,B,E]2- | %13
 [G,B,E] [F,B,=D]2- [F,B,D] [E,G,]2 E, E,2 E, E,2 | x12 | x12 | x12 |[M:9/8] z3 z A,,2- A,,3- | %18
 A,,6 z3 |] %19
V:4
 x9 | x9 | [A,CE]3 [CA]3 E-[EB][Ec] | x9 |[M:3/4] x6 |[M:3/8] E z z |[M:9/8] x9 | z3 z3 .E3 | x9 | %9
[M:5/8] x5 |[M:12/8] E F2 .E3 A,[K:bass] A,2 A, A,2 | E =D2[K:treble] .F3 A, A,2 A, A,2- | %12
 A, [Ec]2- [Ec] e2- e3 c B2- | B A2- A z z G, G,2 G, G,2 | E F2 .E3 A, A,2 A, A,2 | %15
 z3 z [FB]2- [FB] [DF]2- [DF]3- | [DF]3 z3 z6 |[M:9/8] z3 z [A,C]2- [A,C] z z | x9 |] %19

